X:1
T:The Shearer's Lament
M:3/4
L:1/2
K:C
 G/2| c c/2| c c/2| B/2- A-| AA/4-B/4| B/2 B-| B/2 A/2 B/2| G3/2-|\
 G G/2| c c/2| c c/2| B/2 A-| AA/4-B/4| B B/2| A B/2| c3/2-| c c/2|\
 dd/4-e/4| e d/2| cc/4-d/4| d c/2| dc/4-d/4| d c/2| e3/2-| ee/4-f/4|\
 f f/2| f e/2| d/2 d| dB/4-c/4| B B/2| B d/2| d3/2-| d||
